X:113
T:Margaret Stuart's Reel
B:NFID.188a
113marg_s
S:DOD
L:1/8
M:C
R:reel
Q:360
K:Bm % dor
f2Bf dBfB|(3f^ga ea cAec|f2Bf dBfB|1 ecac cBBe:|2 a2ec dBB2||
FBBc dBAc|EA (3AAB cABA|FBBc defb|afec dBBA|
FB (3BBc dBAc|eAAB cABA|dBdb cBca|ecAB cABe||

%%%

